static/img/device/fingerprint-register.svg

<svg width="371" height="108" viewBox="0 0 371 108" fill="none" xmlns="http://www.w3.org/2000/svg">
<g clip-path="url(#clip0_102_368)">
<path d="M370.85 0H0V107.46H370.85V0Z" fill="white"/>
<path d="M137.06 93.96H13.92L32.71 52.25H118.26L137.06 93.96Z" fill="url(#paint0_linear_102_368)" stroke="black" stroke-miterlimit="10"/>
<path d="M57.28 64.01C43.4 64.01 41.51 82.38 58.66 82.38H109.3L103.28 64.01H57.28Z" fill="#808080"/>
<path d="M150.79 13.42C139.94 18.92 119.56 28.82 110.23 32.55C99.3301 36.91 96.1101 37.58 89.8401 40.2C88.0701 40.94 82.5301 43.69 78.7501 45.65C70.1901 47.84 57.7201 51.99 52.3301 54.82C46.7301 57.76 46.1601 60.05 48.2501 63.71C52.8301 80.1 71.5701 80.4 81.9001 78.93C94.4901 77.13 112.06 71.96 119.39 66.63C129.09 65.37 139.93 62.25 150.79 57.23" fill="white"/>
<path d="M150.79 13.42C139.94 18.92 119.56 28.82 110.23 32.55C99.3301 36.91 96.1101 37.58 89.8401 40.2C88.0701 40.94 82.5301 43.69 78.7501 45.65C70.1901 47.84 57.7201 51.99 52.3301 54.82C46.7301 57.76 46.1601 60.05 48.2501 63.71C52.8301 80.1 71.5701 80.4 81.9001 78.93C94.4901 77.13 112.06 71.96 119.39 66.63C129.09 65.37 139.93 62.25 150.79 57.23" stroke="black" stroke-miterlimit="10"/>
<path d="M119.39 66.65C119.63 64.84 118.66 60.7 118.66 60.7" stroke="black" stroke-width="0.6" stroke-miterlimit="10"/>
<path d="M78.7501 45.67C81.2701 50.54 81.0601 57.15 74.5001 60.22C69.9501 62.35 62.5901 65.45 56.7701 66.49C54.1801 66.95 50.7101 66.54 48.2501 63.73" stroke="black" stroke-width="0.6" stroke-miterlimit="10"/>
<path d="M107.67 36.13C110.5 38.29 112.53 41.04 113.83 45.96" stroke="black" stroke-width="0.6" stroke-miterlimit="10"/>
<path d="M336.44 93.96H213.3L232.09 52.25H317.64L336.44 93.96Z" fill="url(#paint1_linear_102_368)" stroke="black" stroke-miterlimit="10"/>
<path d="M256.66 64.01C242.78 64.01 240.89 82.38 258.04 82.38H308.68L302.66 64.01H256.66Z" fill="#808080"/>
<path d="M357.91 30.21C346.09 33.1 323.99 38.1 314.05 39.61C302.45 41.37 299.16 41.29 292.45 42.42C290.56 42.74 284.54 44.16 280.41 45.21C271.58 45.39 258.49 46.6 252.6 48.13C246.48 49.72 245.41 51.82 246.61 55.86C247.34 72.86 265.52 77.42 275.91 78.34C288.58 79.45 306.87 78.42 315.22 74.9C324.95 75.88 336.21 75.3 347.94 72.9" fill="white"/>
<path d="M357.91 30.21C346.09 33.1 323.99 38.1 314.05 39.61C302.45 41.37 299.16 41.29 292.45 42.42C290.56 42.74 284.54 44.16 280.41 45.21C271.58 45.39 258.49 46.6 252.6 48.13C246.48 49.72 245.41 51.82 246.61 55.86C247.34 72.86 265.52 77.42 275.91 78.34C288.58 79.45 306.87 78.42 315.22 74.9C324.95 75.88 336.21 75.3 347.94 72.9" stroke="black" stroke-miterlimit="10"/>
<path d="M315.22 74.89C315.87 73.18 315.87 68.93 315.87 68.93" stroke="black" stroke-width="0.6" stroke-miterlimit="10"/>
<path d="M280.42 45.21C281.76 50.52 280.06 56.92 272.96 58.42C268.05 59.46 260.17 60.81 254.27 60.49C251.64 60.35 248.36 59.17 246.61 55.87" stroke="black" stroke-width="0.6" stroke-miterlimit="10"/>
<path d="M310.75 42.51C313.01 45.26 314.36 48.4 314.51 53.48" stroke="black" stroke-width="0.6" stroke-miterlimit="10"/>
<path d="M201.12 52.87L187.4 39.75V47.52H172.65V58.21H187.4V65.99L201.12 52.87Z" fill="#9FA0A0"/>
</g>
<defs>
<linearGradient id="paint0_linear_102_368" x1="13.92" y1="73.1" x2="137.06" y2="73.1" gradientUnits="userSpaceOnUse">
<stop stop-color="#BFBFBF"/>
<stop offset="0.57" stop-color="white"/>
</linearGradient>
<linearGradient id="paint1_linear_102_368" x1="213.3" y1="-1.88735e-07" x2="336.44" y2="-1.88735e-07" gradientUnits="userSpaceOnUse">
<stop stop-color="#BFBFBF"/>
<stop offset="0.57" stop-color="white"/>
</linearGradient>
<clipPath id="clip0_102_368">
<rect width="370.85" height="107.46" fill="white"/>
</clipPath>
</defs>
</svg>

<svg xmlns="http://www.w3.org/2000/svg" width="371" height="108" fill="none" viewBox="0 0 371 108"><g clip-path="url(#a)"><path fill="#fff" d="M370.85 0H0v107.46h370.85z"/><path fill="url(#b)" stroke="#000" stroke-miterlimit="10" d="M137.06 93.96H13.92l18.79-41.71h85.55z"/><path fill="gray" d="M57.28 64.01c-13.88 0-15.77 18.37 1.38 18.37h50.64l-6.02-18.37z"/><path fill="#fff" d="M150.79 13.42c-10.85 5.5-31.23 15.4-40.56 19.13-10.9 4.36-14.12 5.03-20.39 7.65-1.77.74-7.31 3.49-11.09 5.45-8.56 2.19-21.03 6.34-26.42 9.17-5.6 2.94-6.17 5.23-4.08 8.89C52.83 80.1 71.57 80.4 81.9 78.93c12.59-1.8 30.16-6.97 37.49-12.3 9.7-1.26 20.54-4.38 31.4-9.4"/><path stroke="#000" stroke-miterlimit="10" d="M150.79 13.42c-10.85 5.5-31.23 15.4-40.56 19.13-10.9 4.36-14.12 5.03-20.39 7.65-1.77.74-7.31 3.49-11.09 5.45-8.56 2.19-21.03 6.34-26.42 9.17-5.6 2.94-6.17 5.23-4.08 8.89C52.83 80.1 71.57 80.4 81.9 78.93c12.59-1.8 30.16-6.97 37.49-12.3 9.7-1.26 20.54-4.38 31.4-9.4"/><path stroke="#000" stroke-miterlimit="10" stroke-width=".6" d="M119.39 66.65c.24-1.81-.73-5.95-.73-5.95M78.75 45.67c2.52 4.87 2.31 11.48-4.25 14.55-4.55 2.13-11.91 5.23-17.73 6.27-2.59.46-6.06.05-8.52-2.76M107.67 36.13c2.83 2.16 4.86 4.91 6.16 9.83"/><path fill="url(#c)" stroke="#000" stroke-miterlimit="10" d="M336.44 93.96H213.3l18.79-41.71h85.55z"/><path fill="gray" d="M256.66 64.01c-13.88 0-15.77 18.37 1.38 18.37h50.64l-6.02-18.37z"/><path fill="#fff" d="M357.91 30.21c-11.82 2.89-33.92 7.89-43.86 9.4-11.6 1.76-14.89 1.68-21.6 2.81-1.89.32-7.91 1.74-12.04 2.79-8.83.18-21.92 1.39-27.81 2.92-6.12 1.59-7.19 3.69-5.99 7.73.73 17 18.91 21.56 29.3 22.48 12.67 1.11 30.96.08 39.31-3.44 9.73.98 20.99.4 32.72-2"/><path stroke="#000" stroke-miterlimit="10" d="M357.91 30.21c-11.82 2.89-33.92 7.89-43.86 9.4-11.6 1.76-14.89 1.68-21.6 2.81-1.89.32-7.91 1.74-12.04 2.79-8.83.18-21.92 1.39-27.81 2.92-6.12 1.59-7.19 3.69-5.99 7.73.73 17 18.91 21.56 29.3 22.48 12.67 1.11 30.96.08 39.31-3.44 9.73.98 20.99.4 32.72-2"/><path stroke="#000" stroke-miterlimit="10" stroke-width=".6" d="M315.22 74.89c.65-1.71.65-5.96.65-5.96M280.42 45.21c1.34 5.31-.36 11.71-7.46 13.21-4.91 1.04-12.79 2.39-18.69 2.07-2.63-.14-5.91-1.32-7.66-4.62M310.75 42.51c2.26 2.75 3.61 5.89 3.76 10.97"/><path fill="#9fa0a0" d="M201.12 52.87 187.4 39.75v7.77h-14.75v10.69h14.75v7.78z"/></g><defs><linearGradient id="b" x1="13.92" x2="137.06" y1="73.1" y2="73.1" gradientUnits="userSpaceOnUse"><stop stop-color="#bfbfbf"/><stop offset=".57" stop-color="#fff"/></linearGradient><linearGradient id="c" x1="213.3" x2="336.44" y1="0" y2="0" gradientUnits="userSpaceOnUse"><stop stop-color="#bfbfbf"/><stop offset=".57" stop-color="#fff"/></linearGradient><clipPath id="a"><path fill="#fff" d="M0 0h370.85v107.46H0z"/></clipPath></defs></svg>
